Origami/24x24/apps/QOwnNotes.svg

<svg width="24" height="24" version="1" xmlns="http://www.w3.org/2000/svg">
 <path d="m21 2c0.554 0 1 0.446 1 1v18c0 0.554-0.446 1-1 1h-11l-8-8v-11c0-0.554 0.446-1 1-1z" style="fill:#303d75"/>
 <path d="m12 5.4999982a3.5000006 3.5000006 0 0 0 -3.4999999 3.4999998 3.5000006 3.5000006 0 0 0 0.04004 0.500977 2.5000004 2.5000004 0 0 0 -0.04004 -9.75e-4 2.5000004 2.5000004 0 0 0 -2.5 2.5 2.5000004 2.5000004 0 0 0 2.5 2.5h6.4999999a3.0000005 3.0000005 0 0 0 3 -3 3.0000005 3.0000005 0 0 0 -2.534179 -2.960938 3.5000006 3.5000006 0 0 0 -3.465821 -3.0390623zm-1e-3 1h1e-3c1.259674 0.0018 2.3087 0.9220846 2.47461 2.1708988a1.0001 1.0001 0 0 0 0.835937 0.856445c0.979046 0.153886 1.688569 0.982567 1.689453 1.973633-5.5e-4 1.115932-0.883927 1.999022-2 1.999023h-6.4999999c-0.8402705-1e-6 -1.499999-0.659729-1.5-1.5-1e-6 -0.840272 0.659728-1.499999 1.5-1.5 1e-3 3.5e-5 0.00195-3.7e-5 0.00295 0a1.0001 1.0001 0 0 0 1.025391 -1.15039c-0.017846-0.116512-0.027131-0.23371-0.028341-0.351563 0.00107-1.3912792 1.1076069-2.4975168 2.4990239-2.4980468z" style="opacity:.2"/>
 <path d="m2 14h7c0.5523 0 1 0.44772 1 1v7z" style="fill:#44559e"/>
 <path d="m21 2c0.554 0 1 0.446 1 1v0.5c0-0.554-0.446-1-1-1h-18c-0.554 0-1 0.446-1 1v-0.5c0-0.554 0.446-1 1-1z" style="fill:#ffffff;opacity:.1"/>
 <path d="m12 4.9999982a3.5000006 3.5000006 0 0 0 -3.4999999 3.4999998 3.5000006 3.5000006 0 0 0 0.04004 0.500977 2.5000004 2.5000004 0 0 0 -0.04004 -9.75e-4 2.5000004 2.5000004 0 0 0 -2.5 2.5 2.5000004 2.5000004 0 0 0 2.5 2.5h6.4999999a3.0000005 3.0000005 0 0 0 3 -3 3.0000005 3.0000005 0 0 0 -2.534179 -2.960938 3.5000006 3.5000006 0 0 0 -3.465821 -3.0390623zm-1e-3 1h1e-3c1.259674 0.0018 2.3087 0.9220846 2.47461 2.1708988a1.0001 1.0001 0 0 0 0.835937 0.856445c0.979046 0.153886 1.688569 0.982567 1.689453 1.973633-5.5e-4 1.115932-0.883927 1.999022-2 1.999023h-6.4999999c-0.8402705-1e-6 -1.499999-0.659729-1.5-1.5-1e-6 -0.840272 0.659728-1.499999 1.5-1.5 1e-3 3.5e-5 0.00195-3.7e-5 0.00295 0a1.0001 1.0001 0 0 0 1.025391 -1.15039c-0.017846-0.116512-0.027131-0.23371-0.028341-0.351563 0.00107-1.3912792 1.1076069-2.4975168 2.4990239-2.4980468z" style="fill:#5d8cb9"/>
 <path d="m9 14c0.5523 0 1 0.44772 1 1v0.5c0-0.5523-0.44772-1-1-1h-6.5l-0.5-0.5h7z" style="fill:#ffffff;opacity:.1"/>
 <path d="m2.998 14.998 7.002 7.002h11c0.554 0 1-0.446 1-1v0.5c0 0.554-0.446 1-1 1h-11l-7.486-7.486z" style="opacity:.2"/>
</svg>

<svg xmlns="http://www.w3.org/2000/svg" width="24" height="24" version="1">
 <path style="fill:#303d75" d="m 21,2 c 0.554,0 1,0.446 1,1 l 0,18 c 0,0.554 -0.446,1 -1,1 L 10,22 2,14 2,3 C 2,2.446 2.446,2 3,2 Z"/>
 <path style="opacity:0.2" d="M 12,5.4999982 A 3.5000006,3.5000006 0 0 0 8.5000001,8.999998 3.5000006,3.5000006 0 0 0 8.5400401,9.500975 2.5000004,2.5000004 0 0 0 8.5000001,9.5 a 2.5000004,2.5000004 0 0 0 -2.5,2.5 2.5000004,2.5000004 0 0 0 2.5,2.5 L 15,14.5 a 3.0000005,3.0000005 0 0 0 3,-3 A 3.0000005,3.0000005 0 0 0 15.465821,8.539062 3.5000006,3.5000006 0 0 0 12,5.4999997 Z m -10e-4,1 10e-4,0 c 1.259674,0.0018 2.3087,0.9220846 2.47461,2.1708988 a 1.0001,1.0001 0 0 0 0.835937,0.856445 c 0.979046,0.153886 1.688569,0.982567 1.689453,1.973633 -5.5e-4,1.115932 -0.883927,1.999022 -2,1.999023 l -6.4999999,0 c -0.8402705,-10e-7 -1.499999,-0.659729 -1.5,-1.5 -1e-6,-0.840272 0.659728,-1.499999 1.5,-1.5 0.001,3.5e-5 0.00195,-3.7e-5 0.00295,0 a 1.0001,1.0001 0 0 0 1.025391,-1.15039 C 9.5104951,9.233096 9.5012101,9.115898 9.5000001,8.998045 9.5010701,7.6067658 10.607607,6.5005282 11.999024,6.4999982 Z"/>
 <path style="fill:#44559e" d="m 2,14 7,0 c 0.5523,0 1,0.44772 1,1 l 0,7 z"/>
 <path style="opacity:0.1;fill:#ffffff" d="m 21,2 c 0.554,0 1,0.446 1,1 l 0,0.5 c 0,-0.554 -0.446,-1 -1,-1 l -18,0 c -0.554,0 -1,0.446 -1,1 L 2,3 C 2,2.446 2.446,2 3,2 Z"/>
 <path style="fill:#5d8cb9" d="M 12,4.9999982 A 3.5000006,3.5000006 0 0 0 8.5000001,8.499998 3.5000006,3.5000006 0 0 0 8.5400401,9.000975 2.5000004,2.5000004 0 0 0 8.5000001,9 a 2.5000004,2.5000004 0 0 0 -2.5,2.5 2.5000004,2.5000004 0 0 0 2.5,2.5 L 15,14 A 3.0000005,3.0000005 0 0 0 18,11 3.0000005,3.0000005 0 0 0 15.465821,8.039062 3.5000006,3.5000006 0 0 0 12,4.9999997 Z m -10e-4,1 10e-4,0 c 1.259674,0.0018 2.3087,0.9220846 2.47461,2.1708988 a 1.0001,1.0001 0 0 0 0.835937,0.856445 c 0.979046,0.153886 1.688569,0.982567 1.689453,1.973633 -5.5e-4,1.115932 -0.883927,1.999022 -2,1.999023 l -6.4999999,0 c -0.8402705,-10e-7 -1.499999,-0.659729 -1.5,-1.5 -1e-6,-0.840272 0.659728,-1.499999 1.5,-1.5 0.001,3.5e-5 0.00195,-3.7e-5 0.00295,0 a 1.0001,1.0001 0 0 0 1.025391,-1.15039 C 9.5104951,8.733096 9.5012101,8.615898 9.5000001,8.498045 9.5010701,7.1067658 10.607607,6.0005282 11.999024,5.9999982 Z"/>
 <path style="opacity:0.1;fill:#ffffff" d="m 9,14 c 0.5523,0 1,0.44772 1,1 l 0,0.5 c 0,-0.5523 -0.44772,-1 -1,-1 L 2.5,14.5 2,14 9,14 Z"/>
 <path style="opacity:0.2" d="M 2.998,14.998 10,22 21,22 c 0.554,0 1,-0.446 1,-1 l 0,0.5 c 0,0.554 -0.446,1 -1,1 l -11,0 -7.486,-7.486 z"/>
</svg>
